X: 34711
T: Road To Glenlough, The
R: waltz
M: 3/4
K: Gmajor
G3AB2|G,2B,2D2|G4B2|d4e2|f3gf2|f2e2d2|B4c2|B4A2|
G2A2B2|G,2B,2D2|G4B2|d4e2|f3gf2|f2e2d2|B4c2|B3ABc|
d4B2|d4B2|d4g2|f4AB|c4 [A2c2]|[E4c4] [A2c2]|[E4c4] [E2e2]|e2d2B2|
d4B2|d4B2|d4g2|f3ef^g|a4g2|f4e2|d2f2a2|g4G2|
D2G2B2|B3AG2|D2G2B2|BcB2AG|FA3B2|c2B2c2|(3ddd ^cedc|d2B2G2|
G,B,DGB2|~B3AG2|G,B,DGB2|~B3AG2|[F2A2]A2B2|c2A2F2|D2E2F2|G2F2E2|
D2{A}a2a2|D2{A}a2a2-|a2g2f2|g2d2B2|G2{B}g2g2|G2{B}g2g2-|g2f2e2|f2d2B2|
A2a2a2|A2a2a2-|a2g2f2|g3dB^c|d^cdgfe|d2^c2A2|D2F2A2|G4(3DEF|

